X: 10039
T: HOPE'S WALTZ
C: Bob McQuillen 13 April 93
B: Bob's Note Book 10 #39
%R: waltz
Z: 2021 John Chambers <jc:trillian.mit.edu>
M: 3/4
L: 1/8
K: D
FE \
| "D"D4 FG | A4 fe | "G"d2 c3 B | "D"A4 FA | "G"B2 G2 GB | "D"A2 F2 "Bm"FA | "G"A2 G3 F | "A7"E4 FE |
| "D"D4 FG | A4 fe | "G"d2 c2 B2 | "D"A4 A2 | "G"B3 c d2 | "D"A d3 F2 | "A7"E3 D E2 | "D"D4 :|
|: de \
| "D"f2 d2 ed | "F#m"c2 A2 FA | "G"B2 G3 B | "D"A4 FA | "G"B2 GA Bc | "D"d2 A2 FA | "G6"A2 G3 F | "A7"E4 de |
| "D"f2 d2 ed | "F#m"c2 A2 FA | "G"B2 c2 d2 | "A7"e4 fe | "D"d2 ed "G"cB | "D"A d3 FA | "A7"(3(GAG) F2 E2 | "D"D4 :|
%%begintext align
%% Hope Thomas is (1.) a
%% real nice lady; (2.) an avid dancer; (3.) Bill Thomas's Mom
%% (Bill is a well-known flute & uilleann pipe player in the region)
%% and (4.) I figured it was about time she had her own tune.
%% So that's the story, Hope, and I hope you like your waltz!
%%endtext
